X:154
T: Wer die Trennung hat erfunden (2-29), S. 126
N: K1129
O: Luxemburg
S: KINTZELE, Guillaume: An der Ucht, Bd. 2, Luxemburg 1927]
N: in der Quelle mit einer 2. Stimme versehen
R: Trennungs-, Abschiedsschmerz]
M: 3/4
L: 1/8
K: C
EF | G2e2dc | cBB2
DE | F2BAGF | E4
EF | G2g2fe | edA2
dc | B2edAB | c4
EF | G2g2fe | edA2
dc | B2edAB | c4

